X:170
T:Roscommon Reel, The 
B:CRE1.202 (Ril Roscomain)
F:file ID: cre.1/170rosc_R
S:Sonny Brogan
M:C
R:reel
L:1/8
Q:180
K:Em
EFGA BAGB|AFF2 dFAF|EFGA BAGB|(3AGF dF FEE2|
"5"EFGA BAGB|AFF2 dFAF|EFGA BAGB|AFdD FEE2||
"9"eBB2 efge|faa2 bgaf|eBB2 efge|fagf efgf|
"13"eBB2 efge|faa2 b2ag|fagf efge|dBAF EFGA||
"17"B2BA B2dB|ADD2 ADD2|B2BA B2dB|AFdD FEE2|
"21"EBBA B2dB|ADD2 ADD2|dBBA B2dB|AFdD FEED||E8||

%%%

